!!!!SEGMENT: pl-kozmzk--mzk-m-26--005_stefani-jozef--msza-swieta-offertorium.krn
!!!cenid: 18xx:2949
!!!COM: Stefani, Józef
!!!COM-rismID: pe30024097
!!!CDT: 1800/04/16-1876/03/19
!!!CNT: Polish
!!!OPR: Msza Święta
!!!OTL: Offertorium
!!!OMV: 005
!!!PDT:
!!!AGN: Sacred; Mass
!!!SMS-siglum: PL-KOZmzk
!!!SMS-shelfmark: mzk/m/26
!!!SMS-shelfwork: 001-005 M
!!!SMS-variant:
!!!SMS-altvar:
!!!NIFC-rismSourceID: 1001024881
!!!NIFC-rismChildID: 1001024881
!!!NIFC-islandoraID: pl-kozmzk:12693
!!!URL-pdf-islandora: https://repozytorium.nifc.pl/islandora/object/pl-kozmzk%3A12693/datastream/PDF/view
!!!URL-scan: https://polish.musicsources.pl/pl/lokalizacje/galeria/rekopisy/460 @EN{Scan on Polish Music Sources Website} @PL{Skany w portalu Dziedzictwo Muzyki Polskiej w otwartym dostępie}
!!!ONB-nifc: UWAGA: Części mszy: 1. Kyrie, 2. Gloria, 3. Graduale, 4. Credo, 5. Offertorium, 6. Sanctus, 7. Benedictus, 8. Agnus Dei, 9. Dona nobis
!!!OMD: Andantino.
!!!AIN: 1 empty 1 organ 2 tenor
!!!key:
**kern	**kern	**kern	**text	**dynam	**kern	**text	**dynam	**kern	**text	**dynam
*part4	*part4	*part3	*part3	*part3	*part2	*part2	*part2	*part1	*part1	*part1
*staff5	*staff4	*staff3	*staff3	*	*staff2	*staff2	*	*staff1	*staff1	*
*Iorgan	*Iorgan	*Iempty	*	*	*Itenor	*	*	*Itenor	*	*
*I"[Organy]	*I"[Organy]	*I"[Bas]	*	*	*I"[Tenor 2]	*	*	*I"[Tenor 1]	*	*
*clefF4	*clefG2	*clefF4	*	*	*clefC4	*	*	*clefC4	*	*
*k[b-e-]	*k[b-e-]	*k[b-e-]	*	*	*k[b-e-]	*	*	*k[b-e-]	*	*
*B-:	*B-:	*B-:	*	*	*B-:	*	*	*B-:	*	*
*M3/4	*M3/4	*M3/4	*	*	*M3/4	*	*	*M3/4	*	*
!	!	!	!	!	!	!	!	!LO:TX:a:B:t=Offertorium Terʒettino	!	!
[4F\	[4f/	4r	.	.	4r	.	.	4r	.	.
=1	=1	=1	=1	=1	=1	=1	=1	=1	=1	=1
8F\L]	8f/L]	4r	.	.	4r	.	.	4r	.	.
8F\	8f/	.	.	.	.	.	.	.	.	.
8E-X\	8g 8e-/	4r	.	.	4r	.	.	4r	.	.
!	!	!LO:TX:a:t=Solo	!	!	!LO:TX:a:t=Solo	!	!	!LO:TX:a:t=Solo	!	!
8C\J	8aJ 8f 8e-/	.	.	.	.	.	.	.	.	.
8BB-/L	8b-L 8f 8d/	8D\	.	.	8B-\	Przyj-	.	8B-\	.	.
8FF/J	8ccJ 8a 8f/	8F\	.	.	8A\	-mij	.	8c\	.	.
=2	=2	=2	=2	=2	=2	=2	=2	=2	=2	=2
*	*^	*	*	*	*	*	*	*	*	*
4BB-/	4dd 4b- 4f/	2ryy	4B-\	.	.	4B-\	Bo-	.	4d\	.	.
!	!LO:S:s=2:note:problem=note-level slur	!	!	!	!	!	!	!	!	!	!
4F 4FF/	4cc (4a [4f/	.	4F\	.	.	4A\	-że	.	4c\	.	.
8D/L	8b-/L)	4f\]	8D/	.	.	8B-\	tę	.	8B-\	.	.
8BB-/J	8dd/J	.	8BB-/	.	.	8B-\	o-	.	8d\	.	.
=3	=3	=3	=3	=3	=3	=3	=3	=3	=3	=3	=3
*	*	*2\right	*	*	*	*	*	*	*	*	*
2F 2FF/	4dd 4b-/	2f\	4F\	.	.	4B-\	-fia-	.	4d\	.	.
.	4cc 4a/	.	4F\	.	.	4A\	-rę	.	4c\	.	.
8G\L	8b-/L	4g\	8G\	.	.	8G/	któ-	.	8B-\	.	.
8En\J	8cc/J	.	8En\	.	.	8G/	-rą	.	8c\	.	.
!!LO:LB:g=original
=4	=4	=4	=4	=4	=4	=4	=4	=4	=4	=4	=4
16F\	16a 16f/	4ryy	4F\	.	.	8.F/L	za	.	(16A\LL	.	.
16r	16r	.	.	.	.	.	.	.	16G#X\	.	.
8r	8r	.	.	.	.	.	.	.	16A\)	.	.
.	.	.	.	.	.	16A/Jk	.	.	16c\JJ	.	.
4F\	8ff/L	4a 4f\	4F\	.	.	4A\	nas	.	(8f\L	.	.
.	8cc/J	.	.	.	.	.	.	.	8c\J)	.	.
8BB-/L	8ddL 8b-\	4ryy	8BB-/	.	.	8B-\	ka-	.	8d\	.	.
8C/J	8eenJ 8g\	.	8C/	.	.	8G\	-płan	.	8en\	.	.
*	*v	*v	*	*	*	*	*	*	*	*	*
=5	=5	=5	=5	=5	=5	=5	=5	=5	=5	=5
4F 4FF/	4gg 4b-\	4F\	.	.	4B-\	świę-	.	4g\	.	.
8F 8FF/	8ff 8a\	8F\	.	.	8A\	-ci	.	8f\	.	.
8r	8r	8r	.	.	8r	.	.	8r	.	.
8BB-/L	8b-L 8f 8d/	4r	.	.	4r	.	.	4r	.	.
8FF/J	8ccJ 8a 8f/	.	.	.	.	.	.	.	.	.
=6	=6	=6	=6	=6	=6	=6	=6	=6	=6	=6
*	*^	*	*	*	*	*	*	*	*	*
4BB-/	4dd 4b-/	2.f\	2.r	.	.	2.r	.	.	2.r	.	.
4F 4FF/	(<4cc 4a/	.	.	.	.	.	.	.	.	.	.
8D/L	8b-/L	.	.	.	.	.	.	.	.	.	.
8BB-/J	8ddJ 8b-/	.	.	.	.	.	.	.	.	.	.
=7	=7	=7	=7	=7	=7	=7	=7	=7	=7	=7	=7
2F 2FF/	4dd 4b-/)	2f\	4r	.	.	4r	.	.	4r	.	.
.	4cc 4a/	.	4r	.	.	4r	.	.	4r	.	.
8G\L	8b-/L	4g\	8G\	.	.	8G/	któ-	.	8A\	.	.
8En\J	8cc/J	.	8En\	.	.	8G/	-rą	.	8c\	.	.
*	*v	*v	*	*	*	*	*	*	*	*	*
!!LO:LB:g=original
=8	=8	=8	=8	=8	=8	=8	=8	=8	=8	=8
8F\	8a 8f/	4F\	za	.	8.F/L	.	.	(16A\LL	.	.
.	.	.	.	.	.	.	.	16g\	.	.
8r	8r	.	.	.	.	.	.	16f\)	.	.
.	.	.	.	.	16A/Jk	.	.	16d\JJ	.	.
4F 4FF/	4cc 4a/	4F\	nas	.	4A/	.	.	4c\	.	.
8BB-/L	8ddL 8b-/	8BB-/	ka-	.	8B-\	.	.	8d\	.	.
8C/J	8eenJ 8g/	8C/	-łan	.	8G\	.	.	8en\	.	.
=9	=9	=9	=9	=9	=9	=9	=9	=9	=9	=9
4F 4FF/	4gg 4b-\	4F\	świę-	.	4B-\	.	.	4g^\	.	.
8F 8FF/	8ff 8a\	8F\	-ci,	.	8A\	.	.	8f\	.	.
8r	8r	8r	.	.	8r	.	.	8r	.	.
4r	4r	8.A\	Wzma-	.	4r	.	.	4r	.	.
.	.	16c\	-cniaj	.	.	.	.	.	.	.
=10	=10	=10	=10	=10	=10	=10	=10	=10	=10	=10
*tremolo	*	*2\right	*	*	*	*	*	*	*	*
!LO:TX:t=P:problem=mixed beam	!	!	!	!	!	!	!	!	!	!
8FF/L	4r	2F\	wiecz-	.	4r	.	.	4r	.	.
8F\	.	.	.	.	.	.	.	.	.	.
8FF/	4r	.	.	.	4r	.	.	4r	.	.
8F\	.	.	.	.	.	.	.	.	.	.
8FF/	8.ee-L 8.cc\	4F\	-nie	.	8.c\	.	.	8.e-\	Wzmac-	.
8F\J	.	.	.	.	.	.	.	.	.	.
.	16ddJk 16b-\	.	.	.	16B-\	.	.	16d\	-niaj	.
=11	=11	=11	=11	=11	=11	=11	=11	=11	=11	=11
*rep	*	*	*	*	*	*	*	*	*	*
!LO:TX:t=P:problem=mixed beam	!	!	!	!	!	!	!	!	!	!
.	8qdd 8qb-/	.	.	.	8qB-/	.	.	8qd/	.	.
8FF/L	4.cc 4.a^\	2F\	na-	.	4.A\	.	.	4.c\	wiecz-	.
8F\	.	.	.	.	.	.	.	.	.	.
8FF/	.	.	.	.	.	.	.	.	.	.
8F\	8bn 8g#X\	.	.	.	8G#X\	.	.	8Bn\	-nie	.
8FF/	8.ccL 8.a\	4F\	-szą	.	8.A\	.	.	8.c\	na-	.
8F\J	.	.	.	.	.	.	.	.	.	.
.	16ddJk 16b\	.	.	.	16B-\	.	.	16d\	-szą	.
*Xrep	*	*	*	*	*	*	*	*	*	*
*Xtremolo	*	*	*	*	*	*	*	*	*	*
!!LO:PB:g=original
=12	=12	=12	=12	=12	=12	=12	=12	=12	=12	=12
8FF/L	4ee- 4cc\	4F\	.	.	4c\	wia-	.	4e-\	.	.
8F/	.	.	.	.	.	.	.	.	.	.
8FF/J	8cc 8a\	8F\	.	.	8A\	-rę	.	8c\	.	.
8r	8r	8r	.	.	8r	.	.	8r	.	.
4r	4r	8.B-\	Wspie-	.	4r	.	.	4r	.	.
.	.	16d\	-raj	.	.	.	.	.	.	.
=13	=13	=13	=13	=13	=13	=13	=13	=13	=13	=13
*tremolo	*	*	*	*	*	*	*	*	*	*
!LO:TX:t=P:problem=mixed beam	!	!	!	!	!	!	!	!	!	!
8FF/L	4r	2F\	wszy-	.	4r	.	.	4r	.	.
8F\	.	.	.	.	.	.	.	.	.	.
8FF/	4r	.	.	.	4r	.	.	4r	.	.
8F\	.	.	.	.	.	.	.	.	.	.
8FF/	8.ffL 8.dd\	4F\	-stkie	.	8.d\	Wspie-	.	8.f\	.	.
8F\J	.	.	.	.	.	.	.	.	.	.
.	16ee-Jk 16cc\	.	.	.	16c\	-raj	.	16e-\	.	.
=14	=14	=14	=14	=14	=14	=14	=14	=14	=14	=14
*rep	*	*	*	*	*	*	*	*	*	*
!LO:TX:t=P:problem=mixed beam	!	!	!	!	!	!	!	!	!	!
.	8qee- 8qcc/	.	.	.	8qc/	.	.	8qe-/	.	.
8FF/L	4.dd 4.b-\	2F\	do-	.	4.B-\	wszy-	.	4.d\	.	.
8F\	.	.	.	.	.	.	.	.	.	.
8FF/	.	.	.	.	.	.	.	.	.	.
8F\	8cc 8a\	.	.	.	8A\	-stkie	.	8c\	.	.
8FF/	8.ddL 8.b-\	4F\	-bre	.	8.B-\	do-	.	8.d\	.	.
8F\J	.	.	.	.	.	.	.	.	.	.
.	16ee-Jk 16cc\	.	.	.	16c\	-bre	.	16e-\	.	.
*Xrep	*	*	*	*	*	*	*	*	*	*
*Xtremolo	*	*	*	*	*	*	*	*	*	*
=15	=15	=15	=15	=15	=15	=15	=15	=15	=15	=15
!LO:TX:t=P:problem=mixed beam	!	!	!	!	!	!	!	!	!	!
8BB-/L	4ff 4dd\	4BB-/	chę-	.	4d\	chę-	.	4f\	.	.
8B-\J	.	.	.	.	.	.	.	.	.	.
8BB-/	8dd 8b-\	8BB-/	-ci	.	8B-\	-ci	.	8d\	.	.
8r	8r	8r	.	.	8r	.	.	8r	.	.
!	!	!	!	!LO:DY:rj	!	!	!LO:DY:rj	!	!	!LO:DY:rj
(16c\LL	(16cc\LL	(16c\LL	ken-	f	(16c\LL	ken-	f	(16c\LL	.	f
16B-\	16b-\	16B-\	.	.	16B-\	.	.	16B-\	.	.
16A\	16a\	16A\JJ)	.	.	16A\JJ)	.	.	16A\JJ)	.	.
16B-\JJ)	16b-\JJ)	16B-\	-dy	.	16B-\	-dy	.	16B-\	.	.
!!LO:LB:g=original
=16	=16	=16	=16	=16	=16	=16	=16	=16	=16	=16
4B- 4G 4E-\	4gg 4ee- 4b- 4g\	4E-\	.	>	4B-\	two-	>	4g\	.	>
8B- 8F 8D\	8ff 8b- 8f\	8D\	.	]	8B-\	-je	]	8f\	.	]
8r	8r	8r	.	.	8r	.	.	8r	.	.
16c\LL	16cc\LL	(16c\LL	.	.	(16c\LL	słoń-	.	(16c\LL	.	.
(16B-\	(16b-\	16B-\	.	.	16B-\	.	.	16B-\	.	.
16A\)	16a\)	16A\JJ)	.	.	16A\JJ)	.	.	16A\JJ)	.	.
16B-\JJ	16b-\JJ	16B-\	.	.	16B-\	-ce	.	16B-\	.	.
=17	=17	=17	=17	=17	=17	=17	=17	=17	=17	=17
*	*^	*	*	*	*	*	*	*	*	*
4G 4GG/	4ee- 4b- 4e-/	2ryy	4G\	.	.	4B-\	świe-	.	4e-\	.	.
8F 8FF/	8dd 8b- 8f/	.	8F\	.	.	8B-\	-ci	.	8d\	.	.
8r	8r	.	8r	.	.	8r	.	.	8r	.	.
!	!	!	!	!	!	!	!	!	!	!	!LO:DY:rj
8F#X\L	4dd/	8a\L	8F#X\	.	.	8A\	tam	.	8d\	.	p
8G\J	.	8b-\J	8G\	.	.	8B-\	gdzie	.	8d\	.	.
=18	=18	=18	=18	=18	=18	=18	=18	=18	=18	=18	=18
*2\right	*	*	*	*	*	*	*	*	*	*	*
!	!	!	!	!	!	!	!	!	!LO:TX:a:t=dol&colon;	!	!
2E-\	4.dd/	2.g\	4.E-\	.	.	4.G/	ludz-	.	4.d\	.	.
.	8cc/	.	8E-\	.	.	8G/	-kie	.	8c\	.	.
4En\	8cc/L	.	8En\	.	.	8G/	ser-	.	8c\	.	.
.	8b-/J	.	8E\	.	.	8G/	-ca	.	8B-\	.	.
*	*v	*v	*	*	*	*	*	*	*	*	*
=19	=19	=19	=19	=19	=19	=19	=19	=19	=19	=19
[4F\	4a 4f/	4F\	.	.	8.F/L	bi-	.	8.A\L	.	.
.	.	.	.	.	16A/Jk	.	.	16c\Jk	.	.
8F]L 8FF/	8cc 8a/	8F\	.	.	8A/	-ją	.	8c\	.	.
8F/	8r	8r	.	.	8r	.	.	8r	.	.
8FF/	(16bnLL 16g#X/	8F\	.	.	(16G#X/LL	niech	.	(16Bn\LL	.	.
.	16cc 16a/)	.	.	.	16A/JJ)	.	.	16c\JJ)	.	.
8F/J	(16dd 16b-X/	8F\	.	.	(16B-/LL	cię	.	(16d\LL	.	.
.	16ee-JJ 16cc/)	.	.	.	16c/JJ)	.	.	16e-\JJ)	.	.
!!LO:LB:g=original
=20	=20	=20	=20	=20	=20	=20	=20	=20	=20	=20
*tremolo	*	*	*	*	*	*	*	*	*	*
8BB-\L	4ff 4dd\	4BB-/	.	.	4d\	.	.	(4f\	zna-	.
8F\	.	.	.	.	.	.	.	.	.	.
8BB-\	8dd 8b-\	8BB-/	.	.	8B-\	.	.	8d\)	-ją	.
8F\J	8r	8r	.	.	8r	.	.	8r	.	.
*Xtremolo	*	*	*	*	*	*	*	*	*	*
!LO:TX:t=P:problem=mixed beam	!	!	!	!	!	!	!	!	!	!
8FF/L	(16ccLL 16a\	8F\	.	.	(16A\LL	.	.	(16c\LL	Two-	.
.	16bn 16g#X\)	.	.	.	16G#X\JJ)	.	.	16Bn\JJ)	.	.
8F\J	(16cc 16a\	8F\	.	.	(16A\LL	.	.	(16c\LL	-ię	.
.	16ee-JJ 16cc\)	.	.	.	16c\JJ)	.	.	16e-\JJ)	.	.
=21	=21	=21	=21	=21	=21	=21	=21	=21	=21	=21
*	*^	*	*	*	*	*	*	*	*	*
8BB-\L	4gg 4ee-\	2ryy	4BB-/	.	.	4e-\	.	.	4g\	dzie-	.
8B-\J	.	.	.	.	.	.	.	.	.	.	.
8BB-/	8ff 8dd\	.	8BB-/	.	.	8d\	.	.	8f\	-ci	.
8r	8r	.	8r	.	.	8r	.	.	8r	.	.
8.B-\L	8.ff/L	4dd 4g\	8.B-\	.	.	8.d\	.	.	8.f\	Niech	.
16Bn\Jk	16gg/Jk	.	16Bn\	.	.	16d\	.	.	16g\	jak	.
=22	=22	=22	=22	=22	=22	=22	=22	=22	=22	=22	=22
4.c\	4ff/	2cc 2g\	4c\	.	.	4c^\	.	.	4f\	bra-	>
.	8ee-/	.	8c\	.	.	8c\	.	.	8e-\	-cia	]
8B-X\	8een/L	.	(8B-X\L	.	.	(8c\L	.	.	(8en\L	w zgo-	.
.	.	.	.	.	.	.	.	.	8qg/)	.	.
4A\	8.ff/	4f\	8.A\J)	.	.	8.c\J)	.	.	8.f\J	.	.
.	16ee-X/Jk	.	16A\	.	.	16c\	.	.	16e-X\	-dzie	.
=23	=23	=23	=23	=23	=23	=23	=23	=23	=23	=23	=23
4.B-\	4.dd 4.b- 4.f/	2ryy	4B-\	.	.	4B-\	.	.	4d\	ży-	.
.	.	.	8B-\	.	.	8B-\	.	.	8d\	-ją	.
8r	8r	.	8r	.	.	8r	.	.	8r	.	.
4c 4G 4E-\	8.ff/L	4cc 4g\	4E-\	.	.	4G/	.	.	(8.f\L	jak	.
.	16ee-/Jk	.	.	.	.	.	.	.	16e-\Jk)	.	.
*	*v	*v	*	*	*	*	*	*	*	*	*
!!LO:PB:g=original
=24	=24	=24	=24	=24	=24	=24	=24	=24	=24	=24
4d 4B- 4F\	4dd 4b- 4f/	2F\	.	.	(4.B-\	bra-	.	(4.d\	.	.
4r	4r	.	.	.	.	.	.	.	.	.
.	.	.	.	.	16A\LL	-cia	.	16c\LL	.	.
.	.	.	.	.	16B-\JJ)	.	.	16d\JJ)	.	.
4F 4FF/	4a 4f 4e- 4c/	8.F\	.	.	8.c\	w zgo-	.	8.e-\	.	.
.	.	16F\	.	.	16A\	-dzie	.	16f\	.	.
=25	=25	=25	=25	=25	=25	=25	=25	=25	=25	=25
4.F 4.BB-\	4.b- 4.f 4.d/	4BB-/	.	.	4B-\	ży-	.	4d\	.	.
.	.	8BB-/	.	.	8B-\	-ją	.	8d\	.	.
8r	8r	8r	.	.	8r	.	.	8r	.	.
!	!	!	!	!	!	!	!	!LO:TX:a:t=Tutti	!	!LO:DY:rj
8BB-/L	8b-L 8f 8d/	8D\	.	.	8B-\	któ-	.	8B-\	.	f
8FF/J	8ccJ 8a 8f/	8F\	.	.	8A\	-rzy	.	8c\	.	.
=26	=26	=26	=26	=26	=26	=26	=26	=26	=26	=26
*	*^	*	*	*	*	*	*	*	*	*
4BB-/	4dd 4b-/	2.f\	4BB-/	.	.	4B-\	już	.	4d\	.	.
4F 4FF/	4cc 4a/	.	4F\	.	.	4A\	są	.	4c\	.	.
8D/L	8b-/L	.	8D\	.	.	8B-\	przy	.	8B-\	.	.
8BB-/J	8ddJ 8b-/	.	8BB-/	.	.	8B-\	twym	.	8d\	.	.
!!LO:LB:g=original
=27	=27	=27	=27	=27	=27	=27	=27	=27	=27	=27	=27
4FF/	4dd 4b-/	2f\	4F\	tro-	.	4B-\	.	.	4d\	.	.
4F\	4cc 4a/	.	4F\	-nie	.	4A\	.	.	4c\	.	.
8G\L	8b-/L	4g\	8G\	Ci	.	8G/	.	.	8.B-\	.	.
8En\J	8cc/J	.	8En\	co	.	8G/	.	.	.	.	.
.	.	.	.	.	.	.	.	.	16c\	.	.
*	*v	*v	*	*	*	*	*	*	*	*	*
=28	=28	=28	=28	=28	=28	=28	=28	=28	=28	=28
[4F\	4a 4f/	4F\	ży-	.	8.F/L	.	.	8.A\L	.	.
.	.	.	.	.	16A/Jk	.	.	16c\Jk	.	.
4F] 4FF/	4cc 4a\	4F\	-ją	.	4A\	.	.	4c\	.	.
8B-L 8BB-\	8ddL 8b-\	8BB-/	do	.	8B-\	.	.	8d\	.	.
8cJ 8C\	8eenJ 8g\	8C/	tej	.	8G/	.	.	8en\	.	.
=29	=29	=29	=29	=29	=29	=29	=29	=29	=29	=29
!	!	!	!	!	!	!	!	!	!	!LO:DY:a
4.F 4.FF/	4gg 4b-\	4F\	chwi-	.	4B-\	.	>	4g\	.	>
.	8ff 8a\	8F\	-li	.	8A\	.	]	8f\	.	]
8r	8r	8r	.	.	8r	.	.	8r	.	.
!	!	!LO:TX:a:t=Solo	!	!LO:DY:rj	!LO:TX:a:t=Solo	!	!LO:DY:rj	!LO:TX:a:t=Solo	!	!LO:DY:rj
8BB-/L	8b-L 8f 8d-X/	8D\	Co	p	8B-\	.	p	8B-\	.	p
8FF/J	8ccJ 8a 8f/	8F\	po	.	8A\	.	.	8c\	.	.
!!LO:LB:g=original
=30	=30	=30	=30	=30	=30	=30	=30	=30	=30	=30
*	*^	*	*	*	*	*	*	*	*	*
4BB-/	4dd-X 4b-/	2.f\	4BB-/	na-	.	4B-\	.	.	4d-X\	.	.
4F 4FF/	4cc 4a/	.	4F\	-szym	.	4A\	.	.	4c\	.	.
8D-X/L	8b-/L	.	8D-X/	przyj-	.	8B-\	.	.	8B-\	.	.
8BB-/J	8dd-J 8b-/	.	8BB-/	-dą	.	8B-\	.	.	8d-\	.	.
=31	=31	=31	=31	=31	=31	=31	=31	=31	=31	=31	=31
4FF/	4dd-X 4b-/	2ryy	4F\	zgo-	.	4B-\	.	.	4d-X\	.	.
4F\	4cc 4a/	.	4F\	-nie	.	4A\	.	.	4c\	.	.
8G-X\L	8b-/L	4g-X\	8G-X\	spraw	.	8G-X/	.	.	8B-\	.	.
8E-X\J	8cc/J	.	8E-\	by	.	8G-/	.	.	8c\	.	.
*	*v	*v	*	*	*	*	*	*	*	*	*
=32	=32	=32	=32	=32	=32	=32	=32	=32	=32	=32
16F\	16a 16f/	4F\	Bo-	.	8.F/L	.	.	16A\LL	.	.
16r	16r	.	.	.	.	.	.	(16G#X\	.	.
8r	8r	.	.	.	.	.	.	16A\)	.	.
.	.	.	.	.	16A/Jk	.	.	16c\JJ	.	.
4F 4FF/	4ff 4a 4f/	4F\	-że	.	4A/	.	.	4f\	.	.
8B-L 8BB-\	8ddL 8b-/	8BB-/	w To-	.	8B-\	.	.	8d\	.	.
8cJ 8C\	8eenJ 8g/	8C/	-bie	.	8G/	.	.	8en\	.	.
=33	=33	=33	=33	=33	=33	=33	=33	=33	=33	=33
!	!	!	!	!	!	!	!	!	!	!LO:DY:a
4.F 4.FF/	4gg 4b-\	4F\	ży-	.	4B-\	.	.	4g\	.	>
.	8ff 8a\	8F\	-li	.	8A\	.	.	8f\	.	]
8r	8r	8r	.	.	8r	.	.	8r	.	.
!	!	!LO:TX:a:t=Tutti	!	!	!	!	!	!	!	!
4r	4r	8.A\	któ-	.	4r	.	.	4r	.	.
.	.	16c\	-rzy	.	.	.	.	.	.	.
!!LO:PB:g=original
=34	=34	=34	=34	=34	=34	=34	=34	=34	=34	=34
*tremolo	*	*	*	*	*	*	*	*	*	*
!LO:TX:t=P:problem=mixed beam	!	!	!	!	!	!	!	!	!	!
8FF/L	4r	2F\	już	.	4r	.	.	4r	.	.
8F\	.	.	.	.	.	.	.	.	.	.
8FF/	4r	.	.	.	4r	.	.	4r	.	.
8F\	.	.	.	.	.	.	.	.	.	.
8FF/	8.ee-L 8.cc\	4F\	są	.	8.c\	.	.	8.e-\	któ-	.
8F\J	.	.	.	.	.	.	.	.	.	.
.	16ddJk 16b-\	.	.	.	16B-\	.	.	16d\	-rzy	.
=35	=35	=35	=35	=35	=35	=35	=35	=35	=35	=35
*rep	*	*	*	*	*	*	*	*	*	*
!LO:TX:t=P:problem=mixed beam	!	!	!	!	!	!	!	!	!	!
8FF/L	4.cc 4.a\	2F\	przy	.	4.A\	.	.	4.c\	już	.
8F\	.	.	.	.	.	.	.	.	.	.
8FF/	.	.	.	.	.	.	.	.	.	.
8F\	8bn 8g#X\	.	.	.	8G#X/	.	.	8Bn\	są	.
8FF/	8.ccL 8.a\	4F\	twym	.	8.A\	.	.	8.c\	przy	.
8F\J	.	.	.	.	.	.	.	.	.	.
.	16ddJk 16b-X\	.	.	.	16B-\	.	.	16d\	twym	.
*Xrep	*	*	*	*	*	*	*	*	*	*
*Xtremolo	*	*	*	*	*	*	*	*	*	*
=36	=36	=36	=36	=36	=36	=36	=36	=36	=36	=36
!LO:TX:t=P:problem=mixed beam	!	!	!	!	!	!	!	!	!	!
8FF/L	4ee- 4cc\	4F\	tro-	.	4c\	.	.	4e-\	tro-	.
8F\	.	.	.	.	.	.	.	.	.	.
8FF/J	8cc 8a\	8F\	-nie	.	8A\	.	.	8c\	-nie	.
8r	8r	8r	.	.	8r	.	.	8r	.	.
4r	4r	8.B-\	ci	.	4r	.	.	4r	.	.
.	.	16d\	co	.	.	.	.	.	.	.
=37	=37	=37	=37	=37	=37	=37	=37	=37	=37	=37
*tremolo	*	*	*	*	*	*	*	*	*	*
!LO:TX:t=P:problem=mixed beam	!	!	!	!	!	!	!	!	!	!
8FF/L	4r	2F\	ży-	.	4r	.	.	4r	.	.
8F\	.	.	.	.	.	.	.	.	.	.
8FF/	4r	.	.	.	4r	.	.	4r	.	.
8F\	.	.	.	.	.	.	.	.	.	.
8FF/	8.ffL 8.dd\	4F\	-ią	.	8.d\	.	.	8.f\	Ci	.
8F\J	.	.	.	.	.	.	.	.	.	.
.	16ee-Jk 16cc\	.	.	.	16c\	.	.	16e-\	co	.
!!LO:LB:g=original
=38	=38	=38	=38	=38	=38	=38	=38	=38	=38	=38
!LO:TX:t=P:problem=mixed beam	!	!	!	!	!	!	!	!	!	!
8FF/L	4.dd 4.b-\	2F\	do	.	4.B-\	.	.	4.d\	.	.
8F\	.	.	.	.	.	.	.	.	.	.
8FF/	.	.	.	.	.	.	.	.	.	.
8F\	8cc 8a\	.	.	.	8A\	.	.	8c\	.	.
8FF/	8.ddL 8.b-\	4F\	tej	.	8.B-\	.	.	8.d\	.	.
8F\J	.	.	.	.	.	.	.	.	.	.
.	16ee-Jk 16cc\	.	.	.	16c\	.	.	16e-\	.	.
*Xtremolo	*	*	*	*	*	*	*	*	*	*
=39	=39	=39	=39	=39	=39	=39	=39	=39	=39	=39
!LO:TX:t=P:problem=mixed beam	!	!	!	!	!	!	!	!	!	!
8BB-/L	4ff 4dd\	4BB-/	chwi-	.	4d\	.	.	4f\	.	.
8B-\J	.	.	.	.	.	.	.	.	.	.
8BB-/	8dd 8b-\	8BB-/	-li	.	8B-\	.	.	8d\	.	.
8r	8r	8r	.	.	8r	.	.	8r	.	.
!	!	!	!	!LO:DY:b:rj	!	!	!LO:DY:b:rj	!	!	!LO:DY:rj
16c\LL	16cc\LL	(16c\LL	Co	f	(16c\LL	.	f	(16c\LL	.	f
(16B-\	(16b-\	16B-\	.	.	16B-\	.	.	16B-\	.	.
16A\)	16a\)	16A\JJ)	.	.	16A\JJ)	.	.	16A\JJ)	.	.
16B-\JJ	16b-\JJ	16B-\	po	.	16B-\	.	.	16B-\	.	.
=40	=40	=40	=40	=40	=40	=40	=40	=40	=40	=40
4B- 4G 4E-\	4gg 4ee- 4b- 4g\	4E-\	na-	.	4B-\	.	.	4g\	.	.
8B- 8F 8D\	8ff 8b- 8f\	8D\	-szym	.	8B-\	.	.	8f\	.	.
8r	8r	8r	.	.	8r	.	.	8r	.	.
16c\LL	16cc\LL	16c\LL	przyj-	.	(16c\LL	.	.	(16c\LL	.	.
(16B-\	(16b-\	16B-\	.	.	16B-\	.	.	16B-\	.	.
16A\)	16a\)	16A\JJ	.	.	16A\JJ)	.	.	16A\JJ)	.	.
16B-\JJ	16b-\JJ	16B-\	-dą	.	16B-\	.	.	16B-\	.	.
=41	=41	=41	=41	=41	=41	=41	=41	=41	=41	=41
*	*^	*	*	*	*	*	*	*	*	*
4G 4GG/	4ee- 4b- 4e-/	2ryy	4G\	zgo-	.	4B-\	.	.	4e-\	.	.
8F 8FF/	8dd 8b- 8f/	.	8F\	-nie	.	8B-\	.	.	8d\	.	.
8r	8r	.	8r	.	.	8r	.	.	8r	.	.
8F#X\L	4dd/	8a\L	8F#X\	Spraw	.	8A\	.	.	8d\	.	.
8G\J	.	8b-\J	8G\	by	.	8B-\	.	.	8d\	.	.
!!LO:LB:g=original
=42	=42	=42	=42	=42	=42	=42	=42	=42	=42	=42	=42
4.E-\	4dd/	2.g\	4E-\	.	.	4G/	Bo-	.	4d\	.	.
.	8cc/L	.	8E-\	.	.	8G/	-że	.	8c\	.	.
8C\L	8ee- 8cc/	.	(8C/L	.	.	(8G/L	w To-	.	(8e-\L	.	.
8D\	8dd 8bn/	.	8D/J)	.	.	8Bn/J)	.	.	8d\J)	.	.
8E-\J	8cc/J	.	8E-\	.	.	8c\	-bie	.	8c\	.	.
=43	=43	=43	=43	=43	=43	=43	=43	=43	=43	=43	=43
*	*	*	*	*	*	*2\right	*	*	*	*	*
[2F\	4dd 4b-/	2b- 2f\	2.F\	.	.	(2B-X\	ży-	.	(4d\	.	.
.	4cc/	.	.	.	.	.	.	.	4B-\	.	.
4F] 4FF/	4ff/	4a 4f\	.	.	.	4A\)	.	.	4f\)	.	.
=44	=44	=44	=44	=44	=44	=44	=44	=44	=44	=44	=44
4B- 4BB-\	4b-/	4b-\	4B-\	.	.	4B-\	-li	.	4B-\	.	.
4r	4r	4ryy	4r	.	.	4r	.	.	4r	.	.
!	!	!	!	!	!LO:DY:b:rj	!	!	!LO:DY:b:rj	!	!	!LO:DY:rj
4r	4r	4ryy	8.F 8.BB-\	.	f	8.B-\	Spraw	f	8.d\	.	f
.	.	.	16F 16BB-\	.	.	16B-\	to	.	16d\	.	.
*	*v	*v	*	*	*	*	*	*	*	*	*
=45	=45	=45	=45	=45	=45	=45	=45	=45	=45	=45
*	*	*	*	*	*	*	*	*2\right	*	*
!	!	!	!	!	!	!	!	!	!	!LO:DY:a
4r	4r	[2.F [>2.BB-\	.	.	[2.B-\	spraw	.	[2.d\	.	>]
8r	8r	.	.	.	.	.	.	.	.	.
[4.B- 4.F [4.BB-\	8ffL 8dd\	.	.	.	.	.	.	.	.	.
.	8bb- 8b-\	.	.	.	.	.	.	.	.	.
.	8ffJ 8dd\	.	.	.	.	.	.	.	.	.
=46	=46	=46	=46	=46	=46	=46	=46	=46	=46	=46
2.B-] 2.F 2.BB-;\]	2.bb- 2.dd 2.b-;\	2.F] 2.BB-;\]	.	.	2.B-;\]	.	.	2.d;\]	.	.
==	==	==	==	==	==	==	==	==	==	==
*-	*-	*-	*-	*-	*-	*-	*-	*-	*-	*-
!!!system-decoration: s1,s2,s3{(s4,s5)}
!!!RDF**kern: > = above
!!!RDF**kern: < = below
!!!ENC: Andrzej Gręziak
!!!END: 2021-08-12
!!!ENC: Marta Lawrence
!!!END: 2021-09-09
!!!YEC: Copyright 2022 Narodowy Instytut Fryderyka Chopina (https://polishscores.org)
!!!YEM: License CC-BY-4.0 (https://creativecommons.org/licenses/by/4.0)
